images/indikatorenset/4260.svg

<?xml version="1.0" standalone="no"?><!DOCTYPE svg PUBLIC "-//W3C//DTD SVG 1.1//EN" "http://www.w3.org/Graphics/SVG/1.1/DTD/svg11.dtd"><svg xmlns:xlink="http://www.w3.org/1999/xlink" version="1.1" class="highcharts-root" style="font-family:arial;font-size:9pt;" xmlns="http://www.w3.org/2000/svg" width="485" height="415"><desc>Created with Highstock 5.0.14</desc><defs><clipPath id="highcharts-8ucaj3a-7"><rect x="0" y="0" width="426" height="235" fill="none"></rect></clipPath><clipPath id="highcharts-8ucaj3a-8"><rect x="0" y="0" width="426" height="235" fill="none"></rect></clipPath></defs><rect fill="#fbfbfb" class="highcharts-background" x="0" y="0" width="485" height="415" rx="0" ry="0"></rect><rect fill="none" class="highcharts-plot-background" x="49" y="109" width="426" height="235"></rect><g class="highcharts-label" style="cursor:pointer;" transform="translate(10,451)"><text x="0" y="0"><tspan>&gt; Indikator-Details</tspan></text></g><g class="highcharts-pane-group"></g><g class="highcharts-grid highcharts-xaxis-grid "><path fill="none" class="highcharts-grid-line" d="M 133.5 109 L 133.5 344" opacity="1"></path><path fill="none" class="highcharts-grid-line" d="M 218.5 109 L 218.5 344" opacity="1"></path><path fill="none" class="highcharts-grid-line" d="M 304.5 109 L 304.5 344" opacity="1"></path><path fill="none" class="highcharts-grid-line" d="M 389.5 109 L 389.5 344" opacity="1"></path><path fill="none" class="highcharts-grid-line" d="M 474.5 109 L 474.5 344" opacity="1"></path><path fill="none" class="highcharts-grid-line" d="M 48.5 109 L 48.5 344" opacity="1"></path></g><g class="highcharts-grid highcharts-yaxis-grid "><path fill="none" stroke="#e6e6e6" stroke-width="1" class="highcharts-grid-line" d="M 49 344.5 L 475 344.5" opacity="1"></path><path fill="none" stroke="#e6e6e6" stroke-width="1" class="highcharts-grid-line" d="M 49 285.5 L 475 285.5" opacity="1"></path><path fill="none" stroke="#e6e6e6" stroke-width="1" class="highcharts-grid-line" d="M 49 227.5 L 475 227.5" opacity="1"></path><path fill="none" stroke="#e6e6e6" stroke-width="1" class="highcharts-grid-line" d="M 49 168.5 L 475 168.5" opacity="1"></path><path fill="none" stroke="#e6e6e6" stroke-width="1" class="highcharts-grid-line" d="M 49 108.5 L 475 108.5" opacity="1"></path></g><g class="highcharts-grid highcharts-yaxis-grid "></g><rect fill="none" class="highcharts-plot-border" x="49" y="109" width="426" height="235"></rect><g class="highcharts-axis highcharts-xaxis "><path fill="none" class="highcharts-axis-line" stroke="#ccd6eb" stroke-width="1" d="M 49 344.5 L 475 344.5"></path></g><g class="highcharts-axis highcharts-yaxis "><path fill="none" class="highcharts-axis-line" d="M 49 109 L 49 344"></path></g><g class="highcharts-axis highcharts-yaxis "><path fill="none" class="highcharts-axis-line" d="M 475 109 L 475 344"></path></g><g class="highcharts-series-group"><g class="highcharts-series highcharts-series-0 highcharts-column-series highcharts-color-undefined " transform="translate(49,109) scale(1 1)" clip-path="url(#highcharts-8ucaj3a-8)"><rect x="105" y="183" width="21" height="53" fill="#FF8028" class="highcharts-point"></rect><rect x="190" y="183" width="21" height="53" fill="#FF8028" class="highcharts-point"></rect><rect x="275" y="184" width="21" height="52" fill="#FF8028" class="highcharts-point"></rect><rect x="360" y="185" width="21" height="51" fill="#FF8028" class="highcharts-point"></rect></g><g class="highcharts-markers highcharts-series-0 highcharts-column-series highcharts-color-undefined " transform="translate(49,109) scale(1 1)" clip-path="none"></g><g class="highcharts-series highcharts-series-1 highcharts-column-series highcharts-color-undefined " transform="translate(49,109) scale(1 1)" clip-path="url(#highcharts-8ucaj3a-8)"><rect x="45" y="73" width="21" height="148" fill="#B375AB" class="highcharts-point"></rect><rect x="130" y="67" width="21" height="154" fill="#B375AB" class="highcharts-point"></rect><rect x="216" y="65" width="21" height="157" fill="#B375AB" class="highcharts-point"></rect><rect x="301" y="67" width="21" height="157" fill="#B375AB" class="highcharts-point"></rect><rect x="386" y="67" width="21" height="158" fill="#B375AB" class="highcharts-point"></rect></g><g class="highcharts-markers highcharts-series-1 highcharts-column-series highcharts-color-undefined " transform="translate(49,109) scale(1 1)" clip-path="none"></g><g class="highcharts-series highcharts-series-2 highcharts-column-series highcharts-color-undefined " transform="translate(49,109) scale(1 1)" clip-path="url(#highcharts-8ucaj3a-8)"><rect x="45" y="221" width="21" height="15" fill="#923F8D" class="highcharts-point"></rect><rect x="130" y="221" width="21" height="15" fill="#923F8D" class="highcharts-point"></rect><rect x="216" y="222" width="21" height="14" fill="#923F8D" class="highcharts-point"></rect><rect x="301" y="224" width="21" height="12" fill="#923F8D" class="highcharts-point"></rect><rect x="386" y="225" width="21" height="11" fill="#923F8D" class="highcharts-point"></rect></g><g class="highcharts-markers highcharts-series-2 highcharts-column-series highcharts-color-undefined " transform="translate(49,109) scale(1 1)" clip-path="none"></g></g><text x="10" text-anchor="start" class="highcharts-title" style="color:#000000;font-size:1.1em;font-weight:bold;fill:#000000;" y="20"><tspan>Belastete Standorte</tspan></text><text x="10" text-anchor="start" class="highcharts-subtitle" style="color:#000000;font-size:0.9em;fill:#000000;" y="38"><tspan>Anzahl Standorte</tspan></text><g class="highcharts-legend" transform="translate(10,40)"><rect fill="none" class="highcharts-legend-box" rx="0" ry="0" x="0" y="0" width="371" height="57" visibility="visible"></rect><g><g><g class="highcharts-legend-item highcharts-column-series highcharts-color-undefined highcharts-series-0" transform="translate(12,7)"><text x="21" style="color:#333333;font-size:1em;font-weight:normal;cursor:pointer;fill:#333333;" text-anchor="start" y="15"><tspan>BS: Standorte insgesamt</tspan></text><rect x="2" y="4" width="12" height="12" fill="#FF8028" class="highcharts-point"></rect></g><g class="highcharts-legend-item highcharts-column-series highcharts-color-undefined highcharts-series-1" transform="translate(185.640625,7)"><text x="21" y="15" style="color:#333333;font-size:1em;font-weight:normal;cursor:pointer;fill:#333333;" text-anchor="start"><tspan>BL: Rechtskräftige Standorte</tspan></text><rect x="2" y="4" width="12" height="12" fill="#B375AB" class="highcharts-point"></rect></g><g class="highcharts-legend-item highcharts-column-series highcharts-color-undefined highcharts-series-2" transform="translate(12,26)"><text x="21" y="15" style="color:#333333;font-size:1em;font-weight:normal;cursor:pointer;fill:#333333;" text-anchor="start"><tspan>BL: Nicht rechtskräftige Standorte</tspan></text><rect x="2" y="4" width="12" height="12" fill="#923F8D" class="highcharts-point"></rect></g></g></g></g><g class="highcharts-axis-labels highcharts-xaxis-labels "><text x="91.6" style="color:#000000;cursor:default;font-size:0.9em;fill:#000000;" text-anchor="middle" transform="translate(0,0)" y="363" opacity="1"><tspan>2012</tspan></text><text x="176.8" style="color:#000000;cursor:default;font-size:0.9em;fill:#000000;" text-anchor="middle" transform="translate(0,0)" y="363" opacity="1"><tspan>2013</tspan></text><text x="262" style="color:#000000;cursor:default;font-size:0.9em;fill:#000000;" text-anchor="middle" transform="translate(0,0)" y="363" opacity="1"><tspan>2014</tspan></text><text x="347.2" style="color:#000000;cursor:default;font-size:0.9em;fill:#000000;" text-anchor="middle" transform="translate(0,0)" y="363" opacity="1"><tspan>2015</tspan></text><text x="432.40000000000003" style="color:#000000;cursor:default;font-size:0.9em;fill:#000000;" text-anchor="middle" transform="translate(0,0)" y="363" opacity="1"><tspan>2016</tspan></text></g><g class="highcharts-axis-labels highcharts-yaxis-labels "><text x="34" style="color:#000000;cursor:default;font-size:0.9em;fill:#000000;" text-anchor="end" transform="translate(0,0)" y="349" opacity="1"><tspan>0</tspan></text><text x="34" style="color:#000000;cursor:default;font-size:0.9em;fill:#000000;" text-anchor="end" transform="translate(0,0)" y="290" opacity="1"><tspan>500</tspan></text><text x="34" style="color:#000000;cursor:default;font-size:0.9em;fill:#000000;" text-anchor="end" transform="translate(0,0)" y="231" opacity="1"><tspan>1000</tspan></text><text x="34" style="color:#000000;cursor:default;font-size:0.9em;fill:#000000;" text-anchor="end" transform="translate(0,0)" y="172" opacity="1"><tspan>1500</tspan></text><text x="34" style="color:#000000;cursor:default;font-size:0.9em;fill:#000000;" text-anchor="end" transform="translate(0,0)" y="114" opacity="1"><tspan>2000</tspan></text></g><g class="highcharts-axis-labels highcharts-yaxis-labels "></g><text x="10" class="highcharts-credits" text-anchor="start" style="cursor:default;color:#000000;font-size:0.8em;fill:#000000;" y="400"><tspan>Quelle: Amt für Umwelt und Energie Basel-Stadt; Amt für Umweltschutz und Energie Basel-Landschaft</tspan></text></svg>

<svg class="highcharts-root" xmlns="http://www.w3.org/2000/svg" width="485" height="415" font-family="arial" font-size="12">
    <defs>
        <clipPath id="a">
            <path fill="none" d="M0 0h426v235H0z"/>
        </clipPath>
    </defs>
    <rect fill="#fbfbfb" class="highcharts-background" width="485" height="415" rx="0" ry="0"/>
    <path fill="none" class="highcharts-plot-background" d="M49 109h426v235H49z"/>
    <text transform="translate(10 451)" class="highcharts-label" cursor="pointer">
        <tspan>&gt; Indikator-Details</tspan>
    </text>
    <g class="highcharts-grid highcharts-xaxis-grid">
        <path fill="none" class="highcharts-grid-line" d="M133.5 109v235m85-235v235m86-235v235m85-235v235m85-235v235m-426-235v235"/>
    </g>
    <g class="highcharts-grid highcharts-yaxis-grid">
        <path fill="none" stroke="#e6e6e6" class="highcharts-grid-line" d="M49 344.5h426m-426-59h426m-426-58h426m-426-59h426m-426-60h426"/>
    </g>
    <path fill="none" class="highcharts-plot-border" d="M49 109h426v235H49z"/>
    <g class="highcharts-axis highcharts-xaxis">
        <path fill="none" class="highcharts-axis-line" stroke="#ccd6eb" d="M49 344.5h426"/>
    </g>
    <g class="highcharts-axis highcharts-yaxis">
        <path fill="none" class="highcharts-axis-line" d="M49 109v235"/>
    </g>
    <g class="highcharts-axis highcharts-yaxis">
        <path fill="none" class="highcharts-axis-line" d="M475 109v235"/>
    </g>
    <g class="highcharts-series-group">
        <g class="highcharts-series highcharts-series-0 highcharts-column-series highcharts-color-undefined" transform="translate(49 109)" clip-path="url(#a)">
            <path fill="#FF8028" class="highcharts-point" d="M105 183h21v53h-21zm85 0h21v53h-21zm85 1h21v52h-21zm85 1h21v51h-21z"/>
        </g>
        <g class="highcharts-series highcharts-series-1 highcharts-column-series highcharts-color-undefined" transform="translate(49 109)" clip-path="url(#a)">
            <path fill="#B375AB" class="highcharts-point" d="M45 73h21v148H45zm85-6h21v154h-21zm86-2h21v157h-21zm85 2h21v157h-21zm85 0h21v158h-21z"/>
        </g>
        <g class="highcharts-series highcharts-series-2 highcharts-column-series highcharts-color-undefined" transform="translate(49 109)" clip-path="url(#a)">
            <path fill="#923F8D" class="highcharts-point" d="M45 221h21v15H45zm85 0h21v15h-21zm86 1h21v14h-21zm85 2h21v12h-21zm85 1h21v11h-21z"/>
        </g>
    </g>
    <text x="10" class="highcharts-title" y="20" color="#000" font-size="1.1em" font-weight="700">
        <tspan>Belastete Standorte</tspan>
    </text>
    <text x="10" class="highcharts-subtitle" y="38" color="#000" font-size=".9em">
        <tspan>Anzahl Standorte</tspan>
    </text>
    <g class="highcharts-legend" transform="translate(10 40)">
        <rect fill="none" class="highcharts-legend-box" rx="0" ry="0" width="371" height="57"/>
        <g class="highcharts-legend-item highcharts-column-series highcharts-color-undefined highcharts-series-0">
            <text x="21" y="15" color="#333" font-size="1em" font-weight="400" cursor="pointer" fill="#333" transform="translate(12 7)">
                <tspan>BS: Standorte insgesamt</tspan>
            </text>
            <path fill="#FF8028" class="highcharts-point" d="M14 11h12v12H14z"/>
        </g>
        <g class="highcharts-legend-item highcharts-column-series highcharts-color-undefined highcharts-series-1">
            <text x="21" y="15" color="#333" font-size="1em" font-weight="400" cursor="pointer" fill="#333" transform="translate(185.64 7)">
                <tspan>BL: Rechtskräftige Standorte</tspan>
            </text>
            <path fill="#B375AB" class="highcharts-point" d="M187.64 11h12v12h-12z"/>
        </g>
        <g class="highcharts-legend-item highcharts-column-series highcharts-color-undefined highcharts-series-2">
            <text x="21" y="15" color="#333" font-size="1em" font-weight="400" cursor="pointer" fill="#333" transform="translate(12 26)">
                <tspan>BL: Nicht rechtskräftige Standorte</tspan>
            </text>
            <path fill="#923F8D" class="highcharts-point" d="M14 30h12v12H14z"/>
        </g>
    </g>
    <g class="highcharts-axis-labels highcharts-xaxis-labels" text-anchor="middle" color="#000" cursor="default" font-size=".9em">
        <text x="91.6" y="363">
            <tspan>2012</tspan>
        </text>
        <text x="176.8" y="363">
            <tspan>2013</tspan>
        </text>
        <text x="262" y="363">
            <tspan>2014</tspan>
        </text>
        <text x="347.2" y="363">
            <tspan>2015</tspan>
        </text>
        <text x="432.4" y="363">
            <tspan>2016</tspan>
        </text>
    </g>
    <g class="highcharts-axis-labels highcharts-yaxis-labels" text-anchor="end" color="#000" cursor="default" font-size=".9em">
        <text x="34" y="349">
            <tspan>0</tspan>
        </text>
        <text x="34" y="290">
            <tspan>500</tspan>
        </text>
        <text x="34" y="231">
            <tspan>1000</tspan>
        </text>
        <text x="34" y="172">
            <tspan>1500</tspan>
        </text>
        <text x="34" y="114">
            <tspan>2000</tspan>
        </text>
    </g>
    <text x="10" class="highcharts-credits" y="400" cursor="default" color="#000" font-size=".8em">
        <tspan>Quelle: Amt für Umwelt und Energie Basel-Stadt; Amt für Umweltschutz und Energie Basel-Landschaft</tspan>
    </text>
</svg>
